X: 10
T: Rose In The Heather, The
Z: Jeff Rowan
S: https://thesession.org/tunes/447#setting51566
R: jig
M: 6/8
L: 1/8
K: Dmaj
|: B3 ABA | GBd edB | deg aga | age dBA |
| B3 ABA |GBd edB | dge dBA |1 BGG G2 d :|2 BGG G2 a ||
|: Bge deg | Bdd dBG | C3 BAG | eaa aga |
| Bge deg | Bdd dBd | edB CBA |1 BGG G2 d :|2 BGG G3 ||

